rospo-icon-theme-classic-common/48x48/apps/librecad.svg

<svg height="48" viewBox="0 0 48 48" width="48" xmlns="http://www.w3.org/2000/svg"><circle cx="24" cy="25" opacity=".2" r="20"/><circle cx="24" cy="24" fill="#8bc34a" r="20"/><path d="m24 4a20 20 0 0 0 -20 20 20 20 0 0 0  .0215.582 20 20 0 0 1 19.9785-19.582 20 20 0 0 1 19.979 19.418 20 20 0 0 0  .021-.418 20 20 0 0 0 -20-20z" fill="#fff" opacity=".2"/><circle cx="24" cy="25" opacity=".2" r="14"/><circle cx="24" cy="24" fill="#fff" r="14"/><path d="m4.0996094 23a20 20 0 0 0 -.0996094 2 20 20 0 0 0  .1210938 2h39.7792972a20 20 0 0 0  .099609-2 20 20 0 0 0 -.121094-2z" opacity=".2"/><path d="m4.0996094 22a20 20 0 0 0 -.0996094 2 20 20 0 0 0  .1210938 2h39.7792972a20 20 0 0 0  .099609-2 20 20 0 0 0 -.121094-2z" fill="#4f4f4f"/><rect height="12" opacity=".2" rx="2" width="12" x="2" y="19"/><rect fill="#4f4f4f" height="12" rx="2" width="12" x="2" y="18"/></svg>

<svg xmlns="http://www.w3.org/2000/svg" width="48" height="48" version="1.1" viewBox="0 0 48 48">
 <circle style="opacity:0.2" cx="24" cy="25" r="20"/>
 <circle style="fill:#8bc34a" cx="24" cy="24" r="20"/>
 <path style="opacity:0.2;fill:#ffffff" d="M 24 4 A 20 20 0 0 0 4 24 A 20 20 0 0 0 4.0215 24.582 A 20 20 0 0 1 24 5 A 20 20 0 0 1 43.979 24.418 A 20 20 0 0 0 44 24 A 20 20 0 0 0 24 4 z"/>
 <circle style="opacity:0.2" cx="24" cy="25" r="14"/>
 <circle style="fill:#ffffff" cx="24" cy="24" r="14"/>
 <path d="M 4.0996094,23 A 20,20 0 0 0 4,25 20,20 0 0 0 4.1210938,27 H 43.900391 A 20,20 0 0 0 44,25 20,20 0 0 0 43.878906,23 Z" style="opacity:0.2"/>
 <path style="fill:#4f4f4f" d="M 4.0996094 22 A 20 20 0 0 0 4 24 A 20 20 0 0 0 4.1210938 26 L 43.900391 26 A 20 20 0 0 0 44 24 A 20 20 0 0 0 43.878906 22 L 4.0996094 22 z"/>
 <rect width="12" height="12" x="2" y="19" rx="2" ry="2" style="opacity:0.2"/>
 <rect style="fill:#4f4f4f" width="12" height="12" x="2" y="18" rx="2" ry="2"/>
</svg>
